X:1
T:Bassett, CM
T:Bassett, CM
T:Patty Stair, 1915
T:Public Domain Courtesy of the Cyber Hymnal™
C:Patty Stair, 1915
Z:Public Domain
Z:Courtesy of the Cyber Hymnal™
%%score ( 1 2 ) ( 3 4 )
L:1/8
Q:1/4=108
M:4/4
K:G
V:1 treble 
V:2 treble 
V:3 bass 
V:4 bass 
V:1
 D2 | [DG]2 [CF]2 [B,G]2 [CE]2 | [CD]2 [DA]2 [DB]2 [^DG]2 | E2 [DG]2 [Ec]2 (BA) | [GB]6 [EG]2 | %5
 B3 z A [EG]2 E2 | G3 z =F [CE]2 [^A,E]2 | [B,D]2 [DG]2 [^CG]2 [=CF]2 | [B,G]6 |] %9
V:2
 D2 | x8 | x8 | E2 x2 F2 x2 | x8 | F2 F2 x E2 x2 | D2 D2 x5 | x8 | x6 |] %9
V:3
 D,2 | [G,,B,]2 [D,A,]2 [E,G,]2 [C,G,]2 | [D,F,]2 [F,C]2 [G,B,]2 [B,,B,]2 | %3
 [C,G,]2 [B,,B,]2 [A,,C]2 [D,D]2 | [G,,D]6 [E,E]2 | [^D,B,]2 [B,,^D]2 [E,B,]2 [C,C]2 x | %6
 [B,,G,]2 [G,,B,]2 [C,C]2 [^C,G,]2 x | [D,G,]2 [D,B,]2 [A,,A,]2 [D,A,]2 | [G,,G,]6 |] %9
V:4
 D,2 | x8 | x8 | x8 | x8 | x9 | x9 | x8 | x6 |] %9

